X:1
T:Title
%%score { ( 1 4 ) | ( 2 3 ) }
L:1/8
M:6/8
K:F
V:1 treble nm="Grand Piano"
V:4 treble 
V:2 bass 
V:3 bass 
V:1
 z3 z2[Q:1/4=78] C | A2 A ABc | [Ec]3 E2 C | [EG]2 [EG] [EG][FA][GB] | A3 z2 A | A2 A ABc | %6
 [Dc]3[K:bass] [G,B,D]2 [^F,CD] | .[G,=B,G]2 [G,B,E] [G,B,F]2 [G,DF] | [G,CE]3 z2 [Ec] | z3 .A3 | %10
[M:5/8] [DB]3 [Dd]2 |[M:1/8] [DG] |[M:3/4] [_Ec]2 [EG]A GA | [DB]4 z [DGB] | [DGB]2 [DGB]d c[DGB] | %15
 A2 z2 z2 | z2 z c z2 | [EG]4 z C | A2 AA Bc | [Dc]3 [G,CE]2 [C_E^F] | [B,DG]2 [G,DG] [EB]2 [CEA] | %21
[M:13/8] [A,F]-[A,F]- [A,F]3 z z z z z z z2 |[M:3/4] [B,DF]3 [F,A,CF]3 |] %23
V:2
 z3 z2 [F,A,] | z3 .C3 | [C,G,]3 [C,G,C]2 [E,G,] | [C,C]2 [C,C] [C,C]2 [E,C] | [F,CF]3 z2 [F,C] | %5
 z3 .[F,C]3 | [B,,G,]3 B,,2 A,, | z DG,, G,,2 =B,, | C,3 z2 [C,G,] | %9
 [C,G,]2 [C,G,] [C,G,]2 [C,G,] |[M:5/8] [G,,G,]3 [B,,G,]2 |[M:1/8] [B,,G,] | %12
[M:3/4] [C,G,]2 [C,G,] [D,^F,D]2 [D,F,D] | [G,,G,]4 z G,, | B,,2 D, [G,B,D]2 G, | %15
 z2[K:treble] c/B/[K:bass] D,2 D, | [^C,G,]2 [D,F,] [B,,G,]2 [=B,,G,] | [C,G,]4 z [E,G,] | %18
 z2 z .[F,C]3 | [B,,B,]3 B,,2 A,, | B,,2 B,, [C,G,]2 C, |[M:13/8] F,-F,- F,3 z z z z z z z2 | %22
[M:3/4] B,,3 F,,3 |] %23
V:3
 x6 | [F,CF]2 [F,CF] [F,F]-[F,B,F][F,A,F] | x6 | x6 | x6 | [F,C]2 [F,C] z G,[F,A,C] | x6 | %7
 .G,,3 z3 | x6 | x6 |[M:5/8] x5 |[M:1/8] x |[M:3/4] x6 | x6 | x6 | D,4[K:treble][K:bass] z2 | x6 | %17
 x6 | [F,C]2 .[F,C]2 G,[F,A,C] | x6 | x6 |[M:13/8] x13 |[M:3/4] x6 |] %23
V:4
 x6 | x6 | x6 | x6 | x6 | x6 | x3[K:bass] x3 | x6 | x6 | [_Ec]2 [EG] E-[EG][EA] |[M:5/8] x5 | %11
[M:1/8] x |[M:3/4] x6 | x6 | x6 | [DF]3 [DFA]2 [A,FA] | [EA]2 [DA]G- [GB][FA] | x6 | x6 | x6 | x6 | %21
[M:13/8] x13 |[M:3/4] x6 |] %23

